material/.icons/material/movie-search.svg

<svg xmlns="http://www.w3.org/2000/svg" viewBox="0 0 24 24"><path d="M11.03 20H4c-1.1 0-2-.9-2-2V6c0-1.1.9-2 2-2h1l2 4h3L8 4h2l2 4h3l-2-4h2l2 4h3l-2-4h4v9.05A6.487 6.487 0 0016.5 10c-3.58 0-6.5 2.92-6.5 6.5 0 1.29.38 2.5 1.03 3.5m12.36 2L22 23.39l-3.12-3.07c-.69.43-1.51.68-2.38.68-2.5 0-4.5-2-4.5-4.5s2-4.5 4.5-4.5 4.5 2 4.5 4.5c0 .88-.25 1.71-.69 2.4l3.08 3.1M19 16.5a2.5 2.5 0 00-5 0 2.5 2.5 0 005 0z"/></svg>

<?xml version="1.0" encoding="UTF-8"?><!DOCTYPE svg PUBLIC "-//W3C//DTD SVG 1.1//EN" "http://www.w3.org/Graphics/SVG/1.1/DTD/svg11.dtd"><svg xmlns="http://www.w3.org/2000/svg" xmlns:xlink="http://www.w3.org/1999/xlink" version="1.1" id="mdi-movie-search" width="24" height="24" viewBox="0 0 24 24"><path d="M11.03 20H4C2.9 20 2 19.1 2 18L2 6C2 4.9 2.9 4 4 4H5L7 8H10L8 4H10L12 8H15L13 4H15L17 8H20L18 4H22V13.05C20.85 11.22 18.82 10 16.5 10C12.92 10 10 12.92 10 16.5C10 17.79 10.38 19 11.03 20M23.39 22L22 23.39L18.88 20.32C18.19 20.75 17.37 21 16.5 21C14 21 12 19 12 16.5S14 12 16.5 12 21 14 21 16.5C21 17.38 20.75 18.21 20.31 18.9L23.39 22M19 16.5C19 15.12 17.88 14 16.5 14S14 15.12 14 16.5 15.12 19 16.5 19 19 17.88 19 16.5Z" /></svg>
